src/assets/img/icons/duotone-icons/General/Half-star.svg

<?xml version="1.0" encoding="UTF-8"?>
<svg width="24px" height="24px" viewBox="0 0 24 24" version="1.1" xmlns="http://www.w3.org/2000/svg" xmlns:xlink="http://www.w3.org/1999/xlink">
    <!-- Generator: Sketch 52.2 (67145) - http://www.bohemiancoding.com/sketch -->
    <title>Stockholm-icons / General / Half-star</title>
    <desc>Created with Sketch.</desc>
    <g id="Stockholm-icons-/-General-/-Half-star" stroke="none" stroke-width="1" fill="none" fill-rule="evenodd">
        <polygon id="Shape" points="0 0 24 0 24 24 0 24"></polygon>
        <path d="M12,4.25932872 C12.1488635,4.25921584 12.3000368,4.29247316 12.4425657,4.36281539 C12.6397783,4.46014562 12.7994058,4.61977315 12.8967361,4.81698575 L14.9389263,8.95491503 L19.5054023,9.61846284 C20.0519472,9.69788046 20.4306287,10.2053233 20.351211,10.7518682 C20.3195865,10.9695052 20.2170993,11.1706476 20.0596157,11.3241562 L16.7552826,14.545085 L17.5353298,19.0931094 C17.6286908,19.6374458 17.263103,20.1544017 16.7187666,20.2477627 C16.5020089,20.2849396 16.2790408,20.2496249 16.0843804,20.1472858 L12,18 L12,4.25932872 Z" id="Combined-Shape" fill="#335EEA" opacity="0.3"></path>
        <path d="M12,4.25932872 L12,18 L7.91561963,20.1472858 C7.42677504,20.4042866 6.82214789,20.2163401 6.56514708,19.7274955 C6.46280801,19.5328351 6.42749334,19.309867 6.46467018,19.0931094 L7.24471742,14.545085 L3.94038429,11.3241562 C3.54490071,10.938655 3.5368084,10.3055417 3.92230962,9.91005817 C4.07581822,9.75257453 4.27696063,9.65008735 4.49459766,9.61846284 L9.06107374,8.95491503 L11.1032639,4.81698575 C11.277344,4.464261 11.6315987,4.25960807 12,4.25932872 Z" id="Combined-Shape" fill="#335EEA"></path>
    </g>
</svg>

<svg width="24" height="24" viewBox="0 0 24 24" xmlns="http://www.w3.org/2000/svg"><g fill="none" fill-rule="evenodd"><path d="M0 0h24v24H0z"/><path d="M12 4.26a.996.996 0 01.897.557l2.042 4.138 4.566.663a1 1 0 01.555 1.706l-3.305 3.221.78 4.548a1 1 0 01-1.45 1.054L12 18V4.26z" fill="#335EEA" opacity=".3"/><path d="M12 4.26V18l-4.084 2.147a1 1 0 01-1.451-1.054l.78-4.548-3.305-3.22a1 1 0 01.555-1.707l4.566-.663 2.042-4.138A1 1 0 0112 4.259z" fill="#335EEA"/></g></svg>
